Sources/FrostedUI/Resources/Icons.xcassets/clipboardSize16.imageset/clipboard-size-16.svg

<svg
  width="16"
  height="16"
  viewBox="0 0 16 16"
  fill="none"
  xmlns="http://www.w3.org/2000/svg"
  data-fui-icon="true"
>
  <path
    d="M11.0625 3.25H12C12.6904 3.25 13.25 3.80964 13.25 4.5V14C13.25 14.6904 12.6904 15.25 12 15.25H4C3.30964 15.25 2.75 14.6904 2.75 14V4.5C2.75 3.80964 3.30964 3.25 4 3.25H4.9375M5.75 8.25L10.25 8.25M5.75 11.75H10.25"
    stroke="currentColor"
    stroke-width="1.5"
    stroke-linecap="round"
    stroke-linejoin="round"
  />
  <path
    d="M6.74524 2.22962L6.11436 1.82405L6.11436 1.82406L6.74524 2.22962ZM7.22739 1.47962L7.85827 1.88519L7.85827 1.88519L7.22739 1.47962ZM6.73278 2.25V3C7 3 7.24704 2.85782 7.38128 2.62676L6.73278 2.25ZM9.26722 2.25L8.61871 2.62674C8.75294 2.85781 8.99999 3 9.26722 3V2.25ZM9.25476 2.22962L9.88565 1.82406L9.88564 1.82405L9.25476 2.22962ZM8.77261 1.47962L9.4035 1.07405L9.4035 1.07405L8.77261 1.47962ZM7.37613 2.63519L7.85827 1.88519L6.5965 1.07405L6.11436 1.82405L7.37613 2.63519ZM7.38128 2.62676C7.37958 2.62969 7.37786 2.6325 7.37613 2.63519L6.11436 1.82406C6.10395 1.84025 6.09392 1.85665 6.08427 1.87325L7.38128 2.62676ZM5.50049 3H6.73278V1.5H5.50049V3ZM5.75 2.75C5.75 2.88904 5.6376 3 5.50049 3V1.5C4.81111 1.5 4.25 2.05868 4.25 2.75H5.75ZM5.75 4.25V2.75H4.25V4.25H5.75ZM5.5 4C5.63807 4 5.75 4.11193 5.75 4.25H4.25C4.25 4.94036 4.80964 5.5 5.5 5.5V4ZM10.5 4H5.5V5.5H10.5V4ZM10.25 4.25C10.25 4.11193 10.3619 4 10.5 4V5.5C11.1904 5.5 11.75 4.94036 11.75 4.25H10.25ZM10.25 2.75V4.25H11.75V2.75H10.25ZM10.4995 3C10.3624 3 10.25 2.88904 10.25 2.75H11.75C11.75 2.05868 11.1889 1.5 10.4995 1.5V3ZM9.26722 3H10.4995V1.5H9.26722V3ZM8.62387 2.63518C8.62215 2.63251 8.62043 2.6297 8.61871 2.62674L9.91573 1.87326C9.90608 1.85664 9.89604 1.84024 9.88565 1.82406L8.62387 2.63518ZM8.14173 1.88519L8.62387 2.63519L9.88564 1.82405L9.4035 1.07405L8.14173 1.88519ZM8.35202 2C8.26696 2 8.18773 1.95674 8.14173 1.88519L9.4035 1.07405C9.1735 0.716275 8.77735 0.5 8.35202 0.5V2ZM7.64798 2H8.35202V0.5H7.64798V2ZM7.85827 1.88519C7.81227 1.95674 7.73304 2 7.64798 2V0.5C7.22265 0.5 6.8265 0.716275 6.5965 1.07405L7.85827 1.88519Z"
    fill="currentColor"
  />
</svg>

<svg xmlns="http://www.w3.org/2000/svg" width="16" height="16" fill="none" data-fui-icon="true" viewBox="0 0 16 16"><path stroke="currentColor" stroke-linecap="round" stroke-linejoin="round" stroke-width="1.5" d="M11.063 3.25H12c.69 0 1.25.56 1.25 1.25V14c0 .69-.56 1.25-1.25 1.25H4c-.69 0-1.25-.56-1.25-1.25V4.5c0-.69.56-1.25 1.25-1.25h.938m.812 5h4.5m-4.5 3.5h4.5"/><path fill="currentColor" d="m6.745 2.23-.63-.406zm.482-.75.631.405zm-.494.77V3a.75.75 0 0 0 .648-.373zm2.534 0-.648.377A.75.75 0 0 0 9.267 3zm-.012-.02.63-.406zm-.482-.75.63-.406zM7.376 2.635l.482-.75-1.261-.811-.483.75zm.005-.008-.005.008-1.262-.81-.03.048zM5.501 3h1.232V1.5H5.5zm.249-.25A.25.25 0 0 1 5.5 3V1.5c-.689 0-1.25.559-1.25 1.25zm0 1.5v-1.5h-1.5v1.5zM5.5 4a.25.25 0 0 1 .25.25h-1.5c0 .69.56 1.25 1.25 1.25zm5 0h-5v1.5h5zm-.25.25A.25.25 0 0 1 10.5 4v1.5c.69 0 1.25-.56 1.25-1.25zm0-1.5v1.5h1.5v-1.5zm.25.25a.25.25 0 0 1-.25-.25h1.5A1.25 1.25 0 0 0 10.5 1.5zM9.266 3H10.5V1.5H9.266zm-.643-.365-.005-.008 1.297-.754-.03-.049zm-.482-.75.482.75 1.262-.81-.482-.751zm.21.115a.25.25 0 0 1-.21-.115l1.261-.811A1.25 1.25 0 0 0 8.353.5zm-.704 0h.704V.5h-.704zm.21-.115a.25.25 0 0 1-.21.115V.5a1.25 1.25 0 0 0-1.051.574z"/></svg>
